X:1
T:fuga Ia por Primer tono al Ayre Espanol 
%%score ( 1 2 3 )
L:1/8
Q:1/4=120
M:2/2
K:C
V:1 treble nm="Part_1"
V:2 treble 
V:3 treble 
V:1
 [Ddfa]2 ef [G_Bdg]2 fe | [df]e fd [^ce]A Bc | [df]4 e4 ^G | [ce]4 [Be]4 | [ce]4 B2 a[^cg] | %5
 defd [^ce]A_Bc | [df]2 AB [Ac]2 cB | [Ace]4 ^g4 | abc'a ^ge^fg | a2 ef g2 fe | [df]4 fd' e^c' | %11
 d'2 ab [ac']2 c'b | abc'a ^ge^fg | a4 ^ge^fg | a2 [ce]^f g2 gf | e^fge ^dB^cd | [Beg]2 g2 d2 =cB | %17
 [Bg]4 [df]4 | [ce]6 [Bg]^c | [df]efd [^ce]ABc | ab c'a ^ge ^fg | [Ace]4 [Be]4 | [ce]4 [Bd]2 FE | %23
 [df]4 [A,A]2 EF | G2 FE defg | [ea]4 ef [^cg]2 [cf]e | [df]8 |] %27
V:2
 x8 | D4 A,4 | D2 A,B, [CA]3 B,2 | A,B,CA, ^G,E,^F,G, | A,2 EF G2 FE | DCD_B, A,4 | D4 A,4 | %7
 A,B,CD EDCB, | A,4 B,4 | C4 B,4 | DEFG- G4 | D4 A,4 | D4 B,4 | A,B,CD E4 | A,4 B,4 | C4 B,4 | %16
 E4 D4 | E2 B,C D2 CB, | A,2 EF G2 E2 | D4 A,4 | D4 B,4 | A,B,CA, ^G,E,^F,G, | A,2 EF G2 x2 | %23
 DE FG A2 x2 | G,4 D4 | ^C4 x2 A,4 | D8 |] %27
V:3
 x8 | x8 | x9 | x8 | x8 | x8 | x8 | x8 | x8 | x8 | x8 | x8 | x8 | x8 | x8 | x8 | x2 B^c x4 | x8 | %18
 x8 | x8 | x8 | x8 | x8 | x8 | x8 | x10 | x8 |] %27

